symbols/web/no_photography/materialsymbolsrounded/no_photography_wght100grad200fill1_20px.svg

<svg xmlns="http://www.w3.org/2000/svg" height="20" width="20"><path d="m17.917 15.146-4.875-4.834q-.125-.479-.344-.822-.219-.344-.573-.698t-.656-.552q-.302-.198-.781-.323L6.854 4.083l.458-.541q.271-.313.636-.459.364-.145.76-.145h2.604q.396 0 .75.145.355.146.626.459l1.145 1.25h2.209q.791 0 1.333.541.542.542.542 1.334ZM10 13.958q.562 0 1.031-.229.469-.229.844-.541L7.771 9.083q-.292.375-.531.834-.24.458-.24 1.021 0 1.291.854 2.156.854.864 2.146.864Zm7.354 4.73-1.583-1.584H3.958q-.791 0-1.333-.542-.542-.541-.542-1.333V6.667q0-.792.542-1.334.542-.541 1.333-.541h1.188v1.666L1.812 3.125q-.166-.167-.177-.396-.01-.229.177-.417.188-.187.428-.187.239 0 .427.187l15.521 15.542q.166.167.177.406.01.24-.177.428-.188.187-.417.187-.229 0-.417-.187Z"/></svg>

<svg xmlns="http://www.w3.org/2000/svg" height="20" width="20"><path d="M17.354 18.688 15.771 17.104H3.958Q3.167 17.104 2.625 16.562Q2.083 16.021 2.083 15.229V6.667Q2.083 6.042 2.458 5.604Q2.833 5.167 3.375 5.104H3.792L1.812 3.125Q1.646 2.958 1.635 2.729Q1.625 2.5 1.812 2.312Q2 2.125 2.24 2.125Q2.479 2.125 2.667 2.312L18.188 17.854Q18.354 18.021 18.365 18.26Q18.375 18.5 18.188 18.688Q18 18.875 17.771 18.875Q17.542 18.875 17.354 18.688ZM17.917 15.146 13.042 10.312Q13.021 10.417 13.021 10.5Q13.021 10.583 13.021 10.667Q12.917 9.542 12.167 8.792Q11.417 8.042 10.271 7.938Q10.375 7.938 10.479 7.938Q10.583 7.938 10.688 7.917L6.854 4.083L7.312 3.542Q7.583 3.229 7.948 3.083Q8.312 2.938 8.708 2.938H11.312Q11.708 2.938 12.062 3.083Q12.417 3.229 12.688 3.542L13.833 4.792H16.042Q16.833 4.792 17.375 5.333Q17.917 5.875 17.917 6.667ZM10 13.958Q10.562 13.958 11.031 13.729Q11.5 13.5 11.875 13.188L7.771 9.083Q7.479 9.458 7.24 9.917Q7 10.375 7 10.938Q7 12.229 7.854 13.094Q8.708 13.958 10 13.958Z"/></svg>
